FINK
CUT[HOPP HOPP HOPP ICH BIN EIN REITERSMANN]
REG[Europa, Mitteleuropa, Deutschland, Schlesien]
KEY[F0258  08  D 4/4]
MEL[-5-5-5  1_.-3-5_.-4  -4_-3_0_
    -3-3  -5_-5_-4_-4_  -2_-2_
    -4_-4_  -6_-6_-5_-5_  -3_-3_
    -5_-5_  1_1_-6_-6_  2__
    -7_-5_  -5_-5_-6_-7_  1_0_. //] >>
FCT[Jugend - Lied, Kinder, Spiel, Kniereiter - Lied]
